kora-light/actions/scalable/playlist-generator.svg

<svg xmlns="http://www.w3.org/2000/svg" width="16" height="16" version="1.1">
 <defs>
  <style id="current-color-scheme" type="text/css">
   .ColorScheme-Text { color:#444444; } .ColorScheme-Highlight { color:#4285f4; }
  </style>
 </defs>
 <path style="fill:currentColor" class="ColorScheme-Text" d="M 11.109,1 C 10.85,1 10.602,1.1093 10.418,1.2931 L 1.293,10.418 C 0.90259,10.808 0.90259,11.442 1.293,11.832 L 4.168,14.707 C 4.5605,15.099 5.1915,15.097 5.582,14.707 L 14.707,5.5821 C 15.095,5.1938 15.101,4.5623 14.707,4.1681 L 11.832,1.2931 C 11.641,1.1017 11.38,1 11.109,1 Z M 7.6367,6.9259 9.0742,8.3634 4.875,12.586 3.4141,11.125 Z M 5,3 A 2,2 0 0 1 3,5 2,2 0 0 1 1,3 2,2 0 0 1 3,1 2,2 0 0 1 5,3 Z"/>
</svg>

<svg xmlns="http://www.w3.org/2000/svg" style="fill-rule:evenodd;clip-rule:evenodd;stroke-linejoin:round;stroke-miterlimit:2" width="100%" height="100%" version="1.1" viewBox="0 0 16 16" xml:space="preserve">
 <defs>
  <style id="current-color-scheme" type="text/css">
   .ColorScheme-Text { color:#444444; } .ColorScheme-Highlight { color:#4285f4; } .ColorScheme-NeutralText { color:#ff9800; } .ColorScheme-PositiveText { color:#4caf50; } .ColorScheme-NegativeText { color:#f44336; }
  </style>
 </defs>
 <path style="fill:currentColor;" class="ColorScheme-Text" d="M11.109,1c-0.259,0 -0.507,0.109 -0.691,0.293l-9.125,9.125c-0.39,0.39 -0.39,1.024 0,1.414l2.875,2.875c0.393,0.392 1.024,0.39 1.414,0l9.125,-9.125c0.388,-0.388 0.394,-1.02 0,-1.414l-2.875,-2.875c-0.191,-0.191 -0.452,-0.293 -0.723,-0.293Zm-2.443,3.767l2.567,2.567l-6.423,6.465l-2.608,-2.609l6.464,-6.423Zm-3.666,-1.767c0,1.097 -0.903,2 -2,2c-1.097,0 -2,-0.903 -2,-2c0,-1.097 0.903,-2 2,-2c1.097,0 2,0.903 2,2Z"/>
</svg>
